svg/black/gxlt.svg

<svg width="32" height="32" viewBox="0 0 32 32" version="1.1" xmlns="http://www.w3.org/2000/svg" xmlns:xlink="http://www.w3.org/1999/xlink"><title>svg/black/gxlt</title><desc>Created with Sketch.</desc><g id="black/gxlt" stroke="none" stroke-width="1" fill="none" fill-rule="evenodd"><path d="M16,32 C7.163444,32 0,24.836556 0,16 C0,7.163444 7.163444,0 16,0 C24.836556,0 32,7.163444 32,16 C32,24.836556 24.836556,32 16,32 Z M12.3283117,4.59844156 C11.6519481,4.81038961 11.0036364,5.10025974 10.3771429,5.42441558 C9.89714286,5.68935065 9.42337662,5.96987013 8.9838961,6.30025974 C6.95792208,7.75896104 5.41506494,9.86909091 4.62961039,12.2348052 C4.36779221,13.0483117 4.17454545,13.8898701 4.08727273,14.7407792 C4.04051948,15.3174026 3.99688312,15.8971429 4.0374026,16.4737662 C4.06857143,17.6768831 4.31792208,18.8644156 4.70753247,19.998961 C5.13142857,21.1771429 5.73298701,22.292987 6.49662338,23.2841558 C7.96467532,25.201039 10.0249351,26.6597403 12.3251948,27.3984416 C13.1979221,27.6696104 14.0955844,27.8690909 15.0088312,27.9314286 C15.2083117,27.9657143 15.4171429,27.9438961 15.6197403,27.9719481 C16.8384416,28.0062338 18.0633766,27.8628571 19.2384416,27.5262338 C19.9397403,27.3423377 20.6192208,27.0711688 21.2706494,26.7532468 C23.5896104,25.6249351 25.5127273,23.7174026 26.6815584,21.4171429 C26.9901299,20.7906494 27.2675325,20.1454545 27.4607792,19.4753247 C27.7007792,18.6649351 27.8753247,17.8327273 27.9345455,16.9911688 C27.9688312,16.7885714 27.947013,16.5828571 27.9750649,16.3802597 C27.9812987,16.1246753 27.9844156,15.8722078 27.9750649,15.6197403 C27.947013,15.4171429 27.9688312,15.2114286 27.9345455,15.0088312 C27.8690909,14.0737662 27.6602597,13.1511688 27.3797403,12.2597403 C27.1677922,11.6114286 26.8872727,10.9849351 26.5755844,10.3771429 C26.3075325,9.89714286 26.0301299,9.42337662 25.6997403,8.9838961 C24.2846753,7.01090909 22.2462338,5.4961039 19.9553247,4.68883117 C18.5402597,4.20571429 17.0348052,3.9625974 15.5387013,4.03116883 C14.4477922,4.06545455 13.3662338,4.27116883 12.3283117,4.59844156 Z M14.6379221,8.92779221 C14.6379221,9.86285714 14.6379221,10.7948052 14.6379221,11.7298701 C14.6316883,11.7797403 14.6784416,11.8077922 14.7033766,11.8420779 C15.1335065,12.294026 15.5667532,12.7428571 15.9968831,13.1948052 C15.9937662,11.7735065 15.9937662,10.3490909 15.9968831,8.92779221 C15.5449351,8.92779221 15.0898701,8.92467532 14.6379221,8.92779221 Z M8.72831169,10.3771429 C8.83116883,10.4457143 8.90597403,10.5454545 8.99324675,10.6296104 C9.91896104,11.5646753 10.8477922,12.4966234 11.7703896,13.4379221 C12.6150649,14.2919481 13.4628571,15.1428571 14.3044156,15.9968831 C13.2851948,17.041039 12.2472727,18.0664935 11.2311688,19.1106494 C10.4176623,19.9303896 9.60415584,20.7501299 8.79376623,21.5698701 C8.77818182,21.5823377 8.74701299,21.6072727 8.72831169,21.6197403 C9.92519481,21.6197403 11.1251948,21.6228571 12.3251948,21.6135065 C13.5501299,20.3324675 14.7812987,19.0545455 16.0031169,17.7703896 C17.2280519,19.0514286 18.4561039,20.3324675 19.681039,21.6135065 C20.8779221,21.6228571 22.0748052,21.6166234 23.2716883,21.6197403 C23.0877922,21.4732468 22.9444156,21.2893506 22.772987,21.1303896 C21.9158442,20.2638961 21.0524675,19.3974026 20.1984416,18.5277922 C19.3693506,17.6831169 18.5246753,16.8509091 17.7018182,16 C17.9012987,15.8005195 18.0883117,15.5916883 18.294026,15.3953247 C19.8618182,13.8150649 21.4233766,12.2285714 22.9911688,10.6483117 C23.0846753,10.5579221 23.1625974,10.4519481 23.2716883,10.3771429 C22.0716883,10.3771429 20.8748052,10.374026 19.6779221,10.3802597 C18.452987,11.6612987 17.2249351,12.9392208 16,14.2202597 C14.7781818,12.9361039 13.547013,11.6581818 12.3220779,10.3802597 C11.1251948,10.3771429 9.92519481,10.3771429 8.72831169,10.3771429 Z M16.0062338,18.7927273 C16.0062338,20.2202597 16.0093506,21.6446753 16.0031169,23.0722078 C16.4581818,23.0690909 16.9132468,23.0722078 17.3651948,23.0722078 C17.3651948,22.1371429 17.3651948,21.2020779 17.3651948,20.267013 C17.3683117,20.2327273 17.3558442,20.2046753 17.334026,20.185974 C17.1033766,19.9366234 16.8602597,19.7028571 16.6327273,19.4535065 C16.427013,19.2290909 16.2057143,19.0233766 16.0062338,18.7927273 Z" id="Combined-Shape" fill="#000" fill-rule="nonzero"/></g></svg>

<svg width="32" height="32" viewBox="0 0 32 32" xmlns="http://www.w3.org/2000/svg"><path d="M16 32C7.163 32 0 24.837 0 16S7.163 0 16 0s16 7.163 16 16-7.163 16-16 16zM12.328 4.598c-.676.212-1.324.502-1.95.826-.48.265-.955.546-1.394.876a12.04 12.04 0 0 0-4.354 5.935 12.31 12.31 0 0 0-.543 2.506c-.046.576-.09 1.156-.05 1.733.032 1.203.28 2.39.67 3.525a12.033 12.033 0 0 0 7.618 7.4c.873.27 1.77.47 2.684.532.2.035.408.013.61.04 1.22.035 2.444-.108 3.62-.445.7-.184 1.38-.455 2.032-.773a12.032 12.032 0 0 0 5.41-5.336 11.86 11.86 0 0 0 .78-1.942c.24-.81.414-1.642.474-2.484.034-.202.012-.408.04-.61.006-.256.01-.509 0-.761-.028-.203-.006-.409-.04-.611-.066-.935-.275-1.858-.555-2.75a12.998 12.998 0 0 0-.804-1.882 12.16 12.16 0 0 0-.876-1.393 12.035 12.035 0 0 0-5.745-4.295c-1.415-.483-2.92-.726-4.416-.658-1.091.034-2.173.24-3.21.567zm2.31 4.33v2.802c-.006.05.04.078.065.112.43.452.864.9 1.294 1.353a973.586 973.586 0 0 1 0-4.267c-.452 0-.907-.003-1.36 0zm-5.91 1.45c.103.068.178.167.265.252.926.935 1.855 1.867 2.777 2.808.845.854 1.693 1.705 2.534 2.559-1.019 1.044-2.057 2.07-3.073 3.114-.813.82-1.627 1.64-2.437 2.459a1.195 1.195 0 0 1-.066.05c1.197 0 2.397.003 3.597-.006 1.225-1.282 2.456-2.56 3.678-3.844 1.225 1.281 2.453 2.562 3.678 3.844 1.197.009 2.394.003 3.59.006-.183-.147-.327-.33-.498-.49-.857-.866-1.72-1.733-2.575-2.602-.829-.845-1.673-1.677-2.496-2.528.2-.2.386-.408.592-.605 1.568-1.58 3.13-3.166 4.697-4.747.094-.09.172-.196.28-.27-1.2 0-2.396-.004-3.593.002-1.225 1.281-2.453 2.56-3.678 3.84-1.222-1.284-2.453-2.562-3.678-3.84-1.197-.003-2.397-.003-3.594-.003zm7.278 8.415c0 1.427.003 2.852-.003 4.28.455-.004.91 0 1.362 0v-2.806a.092.092 0 0 0-.031-.081c-.23-.25-.474-.483-.701-.732-.206-.225-.427-.43-.627-.661z"/></svg>
